packages/core/src/svgs/tokens/branded/KAU.svg

<svg width="24" height="24" viewBox="0 0 24 24" fill="none" xmlns="http://www.w3.org/2000/svg">
<path d="M12.3224 9.09673L8.45152 12.9676L13.6902 20.903C13.9526 21.2487 14.2923 21.528 14.6824 21.7184C15.0722 21.909 15.5014 22.0053 15.9353 21.9998H21.9998C21.016 21.2727 20.1464 20.4029 19.4191 19.4191L12.3224 9.09673ZM2 2H7.80638V13.2192L2 18.7739V2ZM13.6128 2H18.7741L13.6128 7.16123V2Z" fill="#857550"/>
</svg>

<svg xmlns="http://www.w3.org/2000/svg" width="24" height="24" fill="none" viewBox="0 0 24 24">
    <path fill="#857550" d="m12.322 9.097-3.87 3.87 5.238 7.936A2.77 2.77 0 0 0 15.935 22H22a12.3 12.3 0 0 1-2.58-2.58zM2 2h5.806v11.22L2 18.773zm11.613 0h5.161l-5.161 5.161z"/>
</svg>
